(
SynthDef(\vivid1, {|out=0, freq=440|Out.ar(out, DC.ar(0))}).add;

SynthDef(\vivid2, {|out=0, freq=440|Out.ar(out, DC.ar(0))}).add;

SynthDef(\vivid3, {|out=0, freq=440|Out.ar(out, DC.ar(0))}).add;

SynthDef(\vivid4, {|out=0, freq=440|Out.ar(out, DC.ar(0))}).add;

SynthDef(\vivid5, {|out=0, freq=440|Out.ar(out, DC.ar(0))}).add;
)